X: 1
T: Pleasures Of Home, The
M: 4/4
L: 1/8
R: reel
K: Ador
ed|:cA (3AAA AGAB|cBcd (3eee dc|BG (3GGG GFGA|BABc ~d2 ed|
cA (3AAA AGAB|ABcd e2 dc|BGBd cABG|1EAAG ~A2 ed:|2 EAAG A2 AB||
|:cBcd efed|cBcd (3eee ef|~g3 e dedc|BGBc d2 ed|
cBAc BAGB|ABcd (3eee ef|gedB GBdB|1cABG A2 AB:|2cABG A2 ed||
